icons/lines/money-two.svg

<svg xmlns="http://www.w3.org/2000/svg" width="24" height="24" viewBox="0 0 24 24" fill="none" stroke="currentColor" stroke-width="2" stroke-linecap="round" stroke-linejoin="round" >
  <path d="M17 20.5H7C4 20.5 2 19 2 15.5V8.5C2 5 4 3.5 7 3.5H17C20 3.5 22 5 22 8.5V15.5C22 19 20 20.5 17 20.5Z" stroke-miterlimit="10"/>
  <path d="M12 15C13.6569 15 15 13.6569 15 12C15 10.3431 13.6569 9 12 9C10.3431 9 9 10.3431 9 12C9 13.6569 10.3431 15 12 15Z" stroke-miterlimit="10"/>
  <path d="M2 9H3C6 9 7 8 7 5V4" stroke-miterlimit="10"/>
  <path d="M22 9H21C18 9 17 8 17 5V4" stroke-miterlimit="10"/>
  <path d="M2 15H3C6 15 7 16 7 19V20" stroke-miterlimit="10"/>
  <path d="M22 15H21C18 15 17 16 17 19V20" stroke-miterlimit="10"/>
  </svg>

<svg xmlns="http://www.w3.org/2000/svg" width="24" height="24" viewBox="0 0 24 24" fill="none" stroke="currentColor" stroke-width="2" stroke-linecap="round" stroke-linejoin="round">
  <path d="M2 15h1c3 0 4 1 4 4v1" />
  <path d="M2 9h1c3 0 4-1 4-4V4" />
  <path d="M22 15h-1c-3 0-4 1-4 4v1" />
  <path d="M22 9h-1c-3 0-4-1-4-4V4" />
  <path d="M7 20.5c-3 0-5-1.5-5-5v-7c0-3.5 2-5 5-5h10c3 0 5 1.5 5 5v7c0 3.5-2 5-5 5z" />
  <circle cx="12" cy="12" r="3" />
</svg>
